!! 00048] TT[KA
!! NN
!!!OTL: Cai hua
!!!ARE: Asia, China,ÿSichuan, Nanping
!! Ethnic Group: Han
!! II, 255, 1)
!!!SCT: C0233
!!!YEM: Copyright 1995, estate of Helmut Schaffrath.
**kern
*ICvox
*Ivox
*M2/4
*k[f#c#g#d#]
*E:
{8f#
4e
16e
16f#
=1
8.g#
16b
8g#
8c#
=2
8f#
4e
16e
16f#
=3
8g#
16e
16f#
8g#
8c#}
=4
{16g#
16b
4cc#
8ee
=5
4cc#
8b
8g#
=6
8cc#
4g#
16f#
16g#
=7
4e}
{16e
16f#
16g#
16b
=8
4g#
8f#
8e
=9
8c#
4e
16c#
16e
=10
2c#}
==
!!!AGN: Xiaodiao. Siji huahui
!! Beruehmt. Da es aus der Naehe von Gansu kommt, kann man noch den
!!    Stil des Nordwestens erkennen.
!!    Vorspiel weggelassen.
!!!ONB: ESAC (Essen Associative Code) Database: CHINA
!!!AMT: simple duple
!!!AIN: vox
!!!EED: Helmut Schaffrath
!!!EEV: 1.0
*-
